alpha-o-box-outline.svg

<svg fill="currentColor" viewBox="0 0 24 24"><path d="M5 3h14a2 2 0 0 1 2 2v14a2 2 0 0 1-2 2H5a2 2 0 0 1-2-2V5a2 2 0 0 1 2-2m0 2v14h14V5zm6 2h2a2 2 0 0 1 2 2v6a2 2 0 0 1-2 2h-2a2 2 0 0 1-2-2V9a2 2 0 0 1 2-2m0 2v6h2V9z"/></svg>

<svg  viewBox="0 0 24 24" fill="currentColor"><path  d="M5,3H19A2,2 0 0,1 21,5V19A2,2 0 0,1 19,21H5A2,2 0 0,1 3,19V5A2,2 0 0,1 5,3M5,5V19H19V5H5M11,7H13A2,2 0 0,1 15,9V15A2,2 0 0,1 13,17H11A2,2 0 0,1 9,15V9A2,2 0 0,1 11,7M11,9V15H13V9H11Z"/></svg>
